app/assets/images/commmment.svg

<svg width="36" height="36" viewBox="0 0 36 36" fill="none" xmlns="http://www.w3.org/2000/svg">
<path d="M0 6.88595C0 3.08294 2.68629 0 6 0H30C33.3137 0 36 3.08294 36 6.88595V19.7971C36 23.6001 33.3137 26.683 30 26.683H6C2.68629 26.683 0 23.6001 0 19.7971V6.88595Z" fill="#A49E8C"/>
<path d="M10.3121 35.2831C9.59077 36.4342 8.03415 36.147 7.66349 34.7945L5.13899 25.5827C4.80434 24.3616 5.70673 23.1634 6.80797 23.3666L14.2455 24.7388C15.3467 24.942 15.8764 26.4044 15.2252 27.4436L10.3121 35.2831Z" fill="#A49E8C"/>
</svg>

<svg xmlns="http://www.w3.org/2000/svg" width="36" height="36" fill="none"><path fill="#A49E8C" d="M0 6.886C0 3.083 2.686 0 6 0h24c3.314 0 6 3.083 6 6.886v12.911c0 3.803-2.686 6.886-6 6.886H6c-3.314 0-6-3.083-6-6.886z"/><path fill="#A49E8C" d="M10.312 35.283c-.721 1.151-2.278.864-2.649-.489L5.14 25.584c-.335-1.221.568-2.42 1.669-2.216l7.438 1.372c1.1.203 1.63 1.665.98 2.705z"/></svg>
